X:290
T: MAG AUCH DIE LIEBE WEINEN
N: B0768
O: Europa, Mitteleuropa, Deutschland
R: Trost - Lied, religioes
M: 4/4
L: 1/8
K: Bb
 | F2Bcd2c2 | B4F2
^F2 | G2A2B2c2 | d4z2
F2 | B2d2f2e2 | e2
c2fedc | B2A2G2dc | B2A2B2z2

@@@ Tune index: 2508
